!!!OTL: EINST WAR ICH SO GLUECKLICH
!!!ARE: Europa, Mitteleuropa, Deutschland
!!!SCT: E0737A
!!!YEM: Copyright 1995, estate of Helmut Schaffrath.
**kern
*ICvox
*Ivox
*M3/4
*k[]
*C:
{8c
8d
=1
4e
4.e
8e
=2
8d
8e
4f}
{8d
8e
=3
4.f
8g
4a
=4
2g}
{8e
8f
=5
4.g
8e
8a
8g
=6
8g
8f
4d}
{4g
=7
4.b
8a
8g
8f
=8
2e}
{8e
8f
=9
4.g
8e
8a
8g
=10
8g
8f
4d}
{4g
=11
4.b
8a
8g
8f
=12
2e}
==
!!!AGN: Liebes - Lied, Leid, Klage, Tod
!!!ONB: ESAC (Essen Associative Code) Database: ERK2
!!!AMT: simple triple
!!!AIN: vox
!!!EED: Helmut Schaffrath
!!!EEV: 1.0
*-
